X: 1
T: the Humours of Drinagh
N: variant of "the Banks of the Ilen" reel
R: reel
S: Fiddle Hell Online 2021-11-7 Matt Cranitch workshop on "metrical crossover"
Z: 2021 John Chambers <jc:trillian.mit.edu>
M: 6/8
L: 1/8
K: D
A |: FDF ABc | dfd ecA |1,3 FDF ABc | dcA G2G :|2,4 fef gec |  edc d2 :|
|: e \
|  fef gfg | agf gfe | fef gfg | agf g2g |\
| agf gfe | fed ecA | fef gec | edc d2 :|
